static/images/mobile/copyright/wikipedia-tagline-vo.svg

<svg width="119" height="18" viewBox="0 0 119 18" fill="none" xmlns="http://www.w3.org/2000/svg">
<path fill-rule="evenodd" clip-rule="evenodd" d="M15.8387 1.11308C16.6878 1.15562 16.8907 1.16579 16.8907 2.68492V11.1214C16.8907 12.7267 16.6783 12.8009 15.5972 12.8811C15.4814 12.9955 15.4814 13.4024 15.5972 13.5182C15.8305 13.5135 16.0335 13.5084 16.2235 13.5036L16.2394 13.5032L16.2527 13.5028L16.2645 13.5026L16.2748 13.5023C16.7228 13.4908 17.1065 13.4811 17.6629 13.4811C18.132 13.4811 18.3964 13.489 18.7921 13.5007L18.7943 13.5008C18.968 13.506 19.167 13.5119 19.4197 13.5182C19.5355 13.4024 19.5355 12.9955 19.4197 12.8811C18.6282 12.8009 18.4158 12.7252 18.4158 11.1214V9.38388C18.8747 9.39279 19.1405 9.53537 19.5162 10.0804L20.9255 12.0703C21.3116 12.6302 21.3695 12.8589 21.3695 13.1113V13.4187C21.3695 13.4766 21.3888 13.5152 21.4467 13.5152L21.5756 13.5092C21.9174 13.493 22.2643 13.4766 22.7788 13.4766C23.263 13.4766 23.6208 13.4893 24.0465 13.5043L24.0705 13.5051C24.1636 13.5085 24.26 13.5118 24.3618 13.5152C24.4777 13.3994 24.4777 12.994 24.3618 12.8782C23.7055 12.7995 23.1412 12.7178 22.7016 12.0658L20.4429 8.72749C20.385 8.64879 20.3463 8.5508 20.3463 8.45427C20.3463 8.37704 20.3656 8.31912 20.4236 8.2612L21.8908 6.63956C22.464 6.04704 23.0491 5.82874 24.0144 5.79012C24.1302 5.67577 24.1302 5.26888 24.0144 5.15305C23.768 5.15866 23.5744 5.16484 23.398 5.17046L23.3941 5.17059L23.3903 5.17073L23.3867 5.17087C23.0569 5.18146 22.7849 5.19019 22.3348 5.19019C21.7548 5.19019 21.4282 5.17995 20.9638 5.16539H20.9637H20.9631L20.9594 5.16525C20.8377 5.16145 20.7064 5.15735 20.5587 5.15305C20.4429 5.26888 20.4429 5.67577 20.5587 5.79012C21.7259 5.84804 21.1082 6.57126 20.9062 6.7747C19.8904 7.88402 18.9296 8.73938 18.4158 8.88937V2.21863C18.4158 0.965271 18.493 0.191589 18.493 0.191589C18.493 0.0579376 18.4158 0 18.2421 0C17.7594 0.191574 16.3115 0.464813 15.5393 0.522736C15.5007 0.677185 15.5393 0.987564 15.6551 1.10339C15.7195 1.1071 15.7806 1.11017 15.8387 1.11308ZM7.44147 3.78535C7.29371 3.90027 7.10406 3.8992 6.91455 3.89812C6.88121 3.89793 6.84788 3.89775 6.81478 3.89819C6.42867 2.62701 5.83021 1.42711 3.95611 1.42711C2.72205 1.42711 1.84143 2.41318 1.84143 3.59079C1.84143 5.22095 3.78822 5.95116 4.92991 6.37939L4.93044 6.37958C5.11251 6.44789 5.27409 6.5085 5.40401 6.56384C6.79548 7.15785 8.05033 8.08597 8.05033 9.92444C8.05033 11.8936 6.18513 13.6697 3.85364 13.6697C2.9245 13.6697 2.34081 13.5381 1.80692 13.4177C1.35695 13.3162 0.942352 13.2227 0.386108 13.2227C0.154442 12.2767 0.0772209 11.7748 0 10.2883C0.185627 10.1917 0.390564 10.1531 0.628166 10.2303C1.05288 12.1505 2.21417 12.9732 4.01848 12.9732C5.55994 12.9732 6.43016 12.1609 6.43016 10.5971C6.43016 8.70874 5.00514 8.16554 3.83119 7.71805C3.62775 7.6405 3.43185 7.56583 3.25221 7.48752C1.7553 6.83708 0.464813 5.90744 0.464813 4.11057C0.464813 2.06419 2.37604 0.770752 4.14174 0.770752C5.32539 0.770752 5.7486 0.915451 6.17639 1.06172C6.42969 1.14833 6.68459 1.23549 7.09991 1.29347C7.29742 2.31813 7.37315 2.8587 7.44147 3.78535ZM14.3038 12.8782C14.4196 12.994 14.4196 13.3994 14.3038 13.5152C14.1032 13.5106 13.923 13.5059 13.7532 13.5015H13.7519H13.7514C13.2192 13.4877 12.7898 13.4766 12.1609 13.4766C11.539 13.4766 11.1034 13.4878 10.5965 13.5007C10.411 13.5055 10.2159 13.5105 9.99868 13.5152C9.88285 13.3994 9.88285 12.994 9.99868 12.8782C11.1763 12.7816 11.3887 12.7237 11.3887 11.1199V7.35533C11.3887 6.25642 11.1867 6.14207 10.1338 6.04109C10.0952 5.92526 10.0566 5.61786 10.0952 5.50203C11.4273 5.32828 12.1906 5.15602 12.74 4.94217C12.8945 4.94217 12.991 5.00008 12.991 5.07582C12.991 5.07582 12.9138 6.31137 12.9138 7.27217V11.1199C12.9138 12.7252 13.1261 12.8009 14.3038 12.8782ZM12.1609 0.984589C12.6821 0.984589 13.0875 1.52661 13.0875 1.98846C13.0875 2.39684 12.6242 2.9166 12.0837 2.9166C11.6203 2.9166 11.157 2.41467 11.157 1.91273C11.157 1.4494 11.6975 0.984589 12.1609 0.984589ZM26.9488 2.68492C26.9488 1.16579 26.7458 1.15562 25.8968 1.11308C25.8387 1.11017 25.7775 1.1071 25.7132 1.10339C25.5974 0.987564 25.5588 0.677185 25.5974 0.522736C26.3696 0.464813 27.8175 0.191574 28.3001 0C28.4739 0 28.5511 0.0579376 28.5511 0.191589C28.5511 0.191589 28.4739 0.965271 28.4739 2.21863V11.1199C28.4739 12.7207 28.6862 12.8203 29.8639 12.8782C29.9797 12.994 29.9797 13.3994 29.8639 13.5152C29.6633 13.5106 29.483 13.5059 29.3133 13.5015H29.312H29.3115C28.7793 13.4877 28.3499 13.4766 27.721 13.4766C27.0991 13.4766 26.6635 13.4878 26.1566 13.5007C25.9711 13.5055 25.776 13.5105 25.5588 13.5152C25.4429 13.3994 25.4429 12.994 25.5588 12.8782C26.7364 12.8203 26.9488 12.7237 26.9488 11.1199V2.68492ZM39.7289 9.34677C39.7289 7.33752 38.6671 5.00159 35.6748 5.00159C33.0686 5.00159 31.582 7.06726 31.582 9.52051C31.582 11.4897 32.9141 13.6712 35.6362 13.6712C38.5127 13.6712 39.7289 11.2788 39.7289 9.34677ZM35.9837 13.0326C33.9759 13.0326 33.2423 10.5615 33.2423 9.07648C33.2423 7.39543 33.8408 5.63866 35.4624 5.64014C37.1227 5.64014 38.0686 7.12814 38.0686 9.96454C38.0686 12.5114 36.891 13.0326 35.9837 13.0326ZM46.9684 5.00159C48.9375 5.00159 50.3854 6.89349 50.3854 8.93987C50.3854 10.5036 49.8642 11.7005 48.9568 12.5886C48.1653 13.3415 47.2001 13.6712 46.119 13.6712C45.5086 13.6712 44.9116 13.5642 44.4394 13.3727C44.2419 13.291 44.1691 13.2672 44.1691 13.5182V15.6032C44.1691 17.204 44.3815 17.2827 45.7522 17.36C45.868 17.4758 45.868 17.8842 45.7522 18L45.7255 17.9993C44.9091 17.9774 44.3138 17.9614 43.4162 17.9614C42.7539 17.9614 42.3028 17.9731 41.7518 17.9875C41.5962 17.9915 41.4326 17.9958 41.254 18C41.1382 17.8842 41.1382 17.4758 41.254 17.36C42.4316 17.302 42.644 17.2055 42.644 15.6032V7.35683C42.644 6.25792 42.4316 6.14355 41.3892 6.04553C41.3505 5.9297 41.3119 5.61935 41.3505 5.50352C42.6826 5.33273 43.4162 5.159 43.9568 4.94366C44.1112 4.94366 44.2077 5.00157 44.2077 5.08028C44.2077 5.08028 44.1305 5.61934 44.1305 6.31583C44.1305 6.45393 44.2642 6.43463 44.3236 6.37373C45.1923 5.4857 46.2541 5.00159 46.9684 5.00159ZM44.1691 7.85727V11.4481C44.1691 12.146 44.2449 12.2574 44.6325 12.6049C44.9799 12.9153 45.6556 13.0103 46.0031 13.0103C48.1653 13.0103 48.7252 11.0412 48.7252 9.45667C48.7252 7.27367 47.6634 5.88664 46.4278 5.88664C45.865 5.88664 45.0765 6.38858 44.478 7.00635C44.23 7.26326 44.1691 7.45334 44.1691 7.85727ZM56.4087 13.6711C57.8759 13.6711 58.9184 12.9955 59.6906 11.9916C59.6327 11.7971 59.5169 11.7005 59.2852 11.6857C58.5709 12.4193 58.011 12.7267 56.8913 12.7267C56.1963 12.7267 55.3855 12.3198 54.7871 11.3367C54.4009 10.6996 54.1693 9.81158 54.1693 8.69186L59.3045 8.72899C59.5362 8.72899 59.6713 8.61465 59.6713 8.4008C59.6713 6.77768 59.0921 5.04019 56.4087 5.04019C54.7291 5.04019 52.5476 6.64253 52.5476 9.57843C52.5476 10.661 52.8179 11.702 53.455 12.4356C54.1114 13.2063 55.0187 13.6711 56.4087 13.6711ZM58.011 7.70432C58.011 7.88103 57.9338 7.97163 57.7215 7.97459L54.2272 8.03252C54.594 5.85101 55.9454 5.67726 56.4087 5.67726C57.1423 5.67726 58.011 6.08267 58.011 7.70432ZM65.1703 13.6697C63.0869 13.6697 61.8899 11.9292 61.8899 9.55466C61.8899 8.12607 62.3919 6.98706 63.2205 6.15694C63.9927 5.42332 64.8422 5.00009 66.1148 5.00009C66.5875 5.00009 67.1439 5.17989 67.4331 5.27333C67.5346 5.30614 67.6032 5.32829 67.6236 5.32829C67.7573 5.32829 67.7959 5.29115 67.7959 5.15601V2.68492C67.7959 1.16571 67.5942 1.15562 66.744 1.11308C66.6859 1.11017 66.6247 1.1071 66.5603 1.10339C66.446 0.987564 66.4059 0.677185 66.446 0.522736C67.2182 0.464813 68.6646 0.191574 69.1472 0C69.3195 0 69.3982 0.0579376 69.3982 0.191589C69.3982 0.191589 69.3195 0.965271 69.3195 2.21863V10.9669C69.3195 11.9129 69.4933 12.2797 70.7288 12.3762C70.8446 12.4891 70.8446 12.7787 70.7288 12.8975C69.5512 13.0326 68.8176 13.3222 68.3929 13.6712L68.3649 13.6779C68.2306 13.7106 68.1694 13.7254 68.0261 13.6712C68.0261 13.6712 67.8137 12.9955 67.8137 12.5306C67.8137 12.3955 67.6726 12.4326 67.582 12.5039C66.642 13.2851 65.9247 13.6697 65.1703 13.6697ZM67.7988 7.41475C67.7988 6.81926 67.7409 6.68114 67.4692 6.37373C67.0816 5.92972 66.6004 5.67728 65.904 5.67728C65.5178 5.67728 64.7085 5.73518 64.1086 6.64253C63.8205 7.04497 63.5487 7.82016 63.5487 9.21014C63.5487 11.6233 64.6313 12.7653 65.6738 12.7653C66.1564 12.7653 66.7742 12.4564 67.49 11.8386C67.7617 11.6025 67.7988 11.4525 67.7988 11.0842V7.41475ZM77.2198 12.8782C77.104 12.994 77.104 13.3994 77.2198 13.5152C78.1643 13.4959 79.7281 13.4766 79.7281 13.4766H83.8356C84.3643 13.4766 86.1389 13.5137 86.1389 13.5137C86.3335 12.5485 86.5265 11.2936 86.6409 10.2897C86.4523 10.1992 86.2429 10.1606 86.0053 10.1932C85.6177 11.5832 85.0935 12.7222 83.6277 12.7222H81.4462C80.8849 12.7222 80.5389 12.3569 80.5389 11.7599V3.37845C80.5389 1.77611 80.8686 1.67661 82.2199 1.62167C82.3343 1.50583 82.3343 1.09892 82.2199 0.983093L82.0381 0.986633L81.8828 0.989777L81.5705 0.996368H81.5703H81.5699H81.5697C80.961 1.00934 80.4498 1.02023 79.7117 1.02023C78.891 1.02023 78.3637 1.0085 77.6351 0.992264L77.6334 0.992218L77.2198 0.983093C77.104 1.09892 77.104 1.50583 77.2198 1.62167C78.5712 1.67661 78.8994 1.77611 78.8994 3.37845V11.1199C78.8994 12.7237 78.5712 12.8203 77.2198 12.8782ZM92.5067 12.8782C92.6225 12.994 92.6225 13.3994 92.5067 13.5152C92.3048 13.5106 92.1235 13.5059 91.9529 13.5015C91.4205 13.4877 90.9917 13.4766 90.3653 13.4766C89.7435 13.4766 89.3078 13.4878 88.8009 13.5007L88.5157 13.508C88.4596 13.5093 88.4022 13.5107 88.3433 13.5121C88.2976 13.5131 88.2509 13.5142 88.2031 13.5152C88.0873 13.3994 88.0873 12.994 88.2031 12.8782C89.3807 12.7816 89.596 12.7237 89.596 11.1199V7.35533C89.596 6.25642 89.3911 6.14207 88.3382 6.04109C88.3026 5.92526 88.261 5.61786 88.3026 5.50203C89.6332 5.32828 90.3965 5.15602 90.9445 4.94217C91.0989 4.94217 91.1969 5.00008 91.1969 5.07582C91.1969 5.07582 91.1182 6.31137 91.1182 7.27217V11.1199C91.1182 12.7252 91.3306 12.8009 92.5067 12.8782ZM90.3653 0.984589C90.8865 0.984589 91.292 1.52661 91.292 1.98846C91.292 2.39684 90.8271 2.9166 90.2881 2.9166C89.8233 2.9166 89.3599 2.41467 89.3599 1.91273C89.3599 1.4494 89.9035 0.984589 90.3653 0.984589ZM102.238 8.80769C102.238 6.45244 100.501 5.00159 98.821 5.00159C97.9939 5.00159 97.2588 5.32829 96.6573 5.87181C96.5356 5.98318 96.4658 5.9505 96.4658 5.77675V2.2231C96.4658 0.969742 96.543 0.19603 96.543 0.19603C96.543 0.0594025 96.4658 0.00149536 96.292 0.00149536C95.8094 0.19603 94.363 0.467789 93.5893 0.525711C93.5507 0.681625 93.5893 0.989029 93.7051 1.10486L93.7949 1.10977L93.8866 1.11446C94.7374 1.15727 94.9407 1.1675 94.9407 2.68791V12.1089C94.9407 12.8633 94.9199 13.2093 94.862 13.4811C94.957 13.634 95.0565 13.7112 95.2882 13.7112L95.3223 13.6784C95.4401 13.5654 95.6094 13.403 95.7455 13.2479C95.9416 13.0163 96.0574 13.0163 96.2712 13.193C96.7123 13.5657 97.29 13.6712 97.9716 13.6712C99.9407 13.6712 102.238 11.8758 102.238 8.80769ZM96.4658 12.1074V7.28108C96.4658 6.87418 96.5445 6.68857 96.7969 6.46581C97.2959 6.02179 97.8766 5.84804 98.4364 5.84804C99.614 5.84804 100.578 7.27663 100.578 9.15073C100.578 11.353 99.6883 13.0133 97.8558 13.0133C97.2543 13.0133 96.8519 12.5886 96.4658 12.1074ZM108.416 12.8782C108.532 12.994 108.532 13.3994 108.416 13.5152C108.213 13.5105 108.031 13.5058 107.859 13.5014C107.327 13.4877 106.9 13.4766 106.273 13.4766C105.651 13.4766 105.215 13.4878 104.709 13.5007C104.523 13.5055 104.328 13.5105 104.111 13.5152C103.995 13.3994 103.995 12.994 104.111 12.8782C105.288 12.7816 105.502 12.7237 105.502 11.1199V7.35533C105.502 6.25642 105.299 6.14207 104.246 6.04109C104.209 5.92526 104.169 5.61786 104.209 5.50203C105.539 5.32828 106.303 5.15602 106.854 4.94217C107.008 4.94217 107.103 5.00008 107.103 5.07582C107.103 5.07582 107.026 6.31137 107.026 7.27217V11.1199C107.026 12.7252 107.238 12.8009 108.416 12.8782ZM106.273 0.984589C106.796 0.984589 107.2 1.52661 107.2 1.98846C107.2 2.39684 106.736 2.9166 106.194 2.9166C105.729 2.9166 105.269 2.41467 105.269 1.91273C105.269 1.4494 105.81 0.984589 106.273 0.984589ZM109.952 1.11308C110.801 1.15562 111.004 1.16579 111.004 2.68492V11.1214C111.004 12.7267 110.793 12.8009 109.711 12.8811C109.595 12.9955 109.595 13.4024 109.711 13.5182C109.966 13.5131 110.185 13.5075 110.39 13.5023C110.838 13.4908 111.222 13.4811 111.778 13.4811C112.247 13.4811 112.511 13.489 112.907 13.5007C113.081 13.5059 113.281 13.5119 113.535 13.5182C113.65 13.4024 113.65 12.9955 113.535 12.8811C112.746 12.8009 112.531 12.7252 112.531 11.1214V9.38388C112.988 9.39279 113.254 9.53537 113.631 10.0804L115.039 12.0703C115.427 12.6302 115.485 12.8589 115.485 13.1113V13.4187C115.485 13.4766 115.504 13.5152 115.562 13.5152L115.69 13.5092C116.03 13.493 116.376 13.4766 116.892 13.4766C117.375 13.4766 117.733 13.4893 118.158 13.5043C118.259 13.5078 118.363 13.5115 118.474 13.5152C118.59 13.3994 118.59 12.994 118.474 12.8782C117.82 12.7995 117.255 12.7178 116.814 12.0658L114.555 8.72749C114.497 8.64879 114.458 8.5508 114.458 8.45427C114.458 8.37704 114.479 8.31912 114.537 8.2612L116.003 6.63956C116.579 6.04704 117.164 5.82874 118.128 5.79012C118.244 5.67577 118.244 5.26888 118.128 5.15305C117.875 5.15881 117.678 5.16515 117.499 5.17091C117.17 5.18149 116.899 5.19019 116.448 5.19019C115.867 5.19019 115.541 5.17993 115.076 5.16534C114.954 5.16151 114.822 5.15738 114.674 5.15305C114.558 5.26888 114.558 5.67577 114.674 5.79012C115.839 5.84804 115.222 6.57126 115.018 6.7747C114.002 7.88402 113.043 8.73938 112.528 8.88937V2.21863C112.528 0.965271 112.605 0.191589 112.605 0.191589C112.605 0.0579376 112.528 0 112.356 0C111.871 0.191574 110.427 0.464813 109.653 0.522736C109.614 0.677185 109.653 0.987564 109.769 1.10339C109.833 1.1071 109.894 1.11017 109.952 1.11308Z" fill="black"/>
</svg>

<svg xmlns="http://www.w3.org/2000/svg" width="119" height="18" fill="none"><path fill="#000" fill-rule="evenodd" d="M15.839 1.113c.849.043 1.052.053 1.052 1.572v8.436c0 1.606-.213 1.68-1.294 1.76-.116.114-.116.521 0 .637l.627-.014h.015l.014-.001h.022c.448-.012.832-.022 1.388-.022.469 0 .733.008 1.13.02h.001l.626.017c.115-.116.115-.523 0-.637-.792-.08-1.004-.156-1.004-1.76V9.384c.459.009.724.151 1.1.696l1.41 1.99c.386.56.444.789.444 1.041v.308c0 .058.019.096.077.096l.129-.006c.341-.016.688-.032 1.203-.032.484 0 .842.012 1.268.027l.023.001.292.01c.116-.116.116-.521 0-.637-.656-.079-1.22-.16-1.66-.812l-2.26-3.339a.474.474 0 0 1-.096-.273c0-.077.02-.135.078-.193L21.89 6.64c.573-.593 1.158-.811 2.123-.85.116-.114.116-.521 0-.637l-.616.017h-.011c-.33.011-.602.02-1.052.02-.58 0-.907-.01-1.371-.025h-.005l-.4-.012c-.116.116-.116.523 0 .637 1.167.058.55.781.347.985-1.016 1.109-1.976 1.964-2.49 2.114V2.22c0-1.254.077-2.027.077-2.027 0-.134-.077-.192-.25-.192-.484.192-1.931.465-2.704.523-.038.154 0 .465.116.58l.184.01ZM7.44 3.785c-.147.115-.337.114-.526.113h-.1c-.386-1.271-.985-2.47-2.859-2.47-1.234 0-2.115.985-2.115 2.163 0 1.63 1.947 2.36 3.089 2.788.183.069.344.13.474.185 1.391.594 2.646 1.522 2.646 3.36 0 1.97-1.865 3.746-4.196 3.746-.93 0-1.513-.132-2.047-.252-.45-.102-.865-.195-1.42-.195-.233-.946-.31-1.448-.387-2.935a.778.778 0 0 1 .628-.058c.425 1.92 1.586 2.743 3.39 2.743 1.542 0 2.412-.812 2.412-2.376 0-1.888-1.425-2.431-2.599-2.879-.203-.077-.4-.152-.579-.23C1.755 6.838.465 5.908.465 4.11.465 2.064 2.376.77 4.142.77c1.183 0 1.607.144 2.034.29.254.087.509.174.924.232.197 1.025.273 1.566.341 2.492Zm6.863 9.093c.116.116.116.521 0 .637-.2-.004-.381-.01-.55-.014h-.002a54.972 54.972 0 0 0-1.591-.024c-.622 0-1.058.01-1.564.024-.186.005-.381.01-.598.014-.116-.116-.116-.521 0-.637 1.177-.096 1.39-.154 1.39-1.758V7.355c0-1.099-.202-1.213-1.255-1.314-.039-.116-.077-.423-.039-.539 1.332-.174 2.096-.346 2.645-.56.155 0 .251.058.251.134 0 0-.077 1.235-.077 2.196v3.848c0 1.605.212 1.68 1.39 1.758ZM12.16.985c.521 0 .927.542.927 1.003 0 .409-.464.929-1.004.929-.464 0-.927-.502-.927-1.004 0-.464.54-.928 1.004-.928Zm14.788 1.7c0-1.52-.203-1.53-1.052-1.572a23.85 23.85 0 0 1-.184-.01c-.116-.115-.154-.426-.116-.58C26.37.465 27.817.192 28.3 0c.174 0 .251.058.251.192 0 0-.077.773-.077 2.027v8.9c0 1.602.212 1.701 1.39 1.76.116.115.116.52 0 .636-.2-.004-.381-.01-.55-.014h-.002a54.972 54.972 0 0 0-1.591-.024c-.622 0-1.058.01-1.564.024-.186.005-.381.01-.598.014-.116-.116-.116-.521 0-.637 1.177-.058 1.39-.154 1.39-1.758V2.685Zm12.78 6.662c0-2.01-1.062-4.345-4.054-4.345-2.606 0-4.093 2.065-4.093 4.519 0 1.969 1.332 4.15 4.054 4.15 2.877 0 4.093-2.392 4.093-4.324Zm-3.745 3.686c-2.008 0-2.742-2.471-2.742-3.957 0-1.68.599-3.437 2.22-3.436 1.66 0 2.607 1.488 2.607 4.325 0 2.546-1.178 3.068-2.085 3.068Zm10.984-8.031c1.97 0 3.417 1.891 3.417 3.938 0 1.564-.52 2.76-1.428 3.649-.792.752-1.757 1.082-2.838 1.082-.61 0-1.207-.107-1.68-.298-.197-.082-.27-.106-.27.145v2.085c0 1.601.213 1.68 1.583 1.757.116.116.116.524 0 .64h-.027c-.816-.023-1.411-.039-2.309-.039-.662 0-1.113.012-1.664.027l-.498.012c-.116-.116-.116-.524 0-.64 1.178-.058 1.39-.154 1.39-1.757V7.357c0-1.1-.212-1.213-1.255-1.311-.039-.116-.077-.427-.039-.542 1.333-.171 2.066-.345 2.607-.56.154 0 .25.058.25.136 0 0-.077.54-.077 1.236 0 .138.134.119.194.058.868-.888 1.93-1.372 2.644-1.372ZM44.17 7.857v3.591c0 .698.076.81.464 1.157.347.31 1.023.405 1.37.405 2.162 0 2.722-1.969 2.722-3.553 0-2.183-1.062-3.57-2.297-3.57-.563 0-1.351.502-1.95 1.12-.248.256-.309.446-.309.85Zm12.24 5.814c1.467 0 2.51-.675 3.282-1.68-.058-.194-.174-.29-.406-.305-.714.733-1.274 1.04-2.394 1.04-.695 0-1.505-.406-2.104-1.39-.386-.636-.618-1.524-.618-2.644l5.136.037c.231 0 .366-.114.366-.328 0-1.623-.579-3.36-3.262-3.36-1.68 0-3.861 1.602-3.861 4.537 0 1.083.27 2.124.907 2.858.656.77 1.564 1.235 2.954 1.235Zm1.602-5.967c0 .177-.077.268-.29.27l-3.494.059c.367-2.182 1.718-2.356 2.182-2.356.733 0 1.602.406 1.602 2.027Zm7.16 5.966c-2.084 0-3.281-1.74-3.281-4.115 0-1.429.502-2.568 1.33-3.398C63.994 5.423 64.843 5 66.115 5c.473 0 1.029.18 1.318.273.102.033.17.055.19.055.134 0 .173-.037.173-.172V2.685c0-1.52-.202-1.53-1.052-1.572l-.184-.01c-.114-.115-.154-.426-.114-.58.772-.058 2.219-.331 2.701-.523.172 0 .251.058.251.192 0 0-.078.773-.078 2.027v8.748c0 .946.173 1.313 1.409 1.41.116.112.116.402 0 .52-1.178.136-1.911.425-2.336.774l-.028.007c-.134.033-.196.047-.339-.007 0 0-.212-.675-.212-1.14 0-.136-.141-.098-.232-.027-.94.781-1.657 1.166-2.412 1.166Zm2.628-6.255c0-.596-.058-.734-.33-1.041-.387-.444-.869-.697-1.565-.697-.386 0-1.195.058-1.795.966-.288.402-.56 1.177-.56 2.567 0 2.413 1.082 3.555 2.125 3.555.482 0 1.1-.309 1.816-.926.272-.237.309-.386.309-.755v-3.67Zm9.42 5.463c-.115.116-.115.521 0 .637.945-.02 2.51-.038 2.51-.038h4.107c.528 0 2.303.037 2.303.037.195-.965.388-2.22.502-3.224a1.09 1.09 0 0 0-.636-.097c-.387 1.39-.911 2.53-2.377 2.53h-2.182c-.561 0-.907-.366-.907-.963V3.378c0-1.602.33-1.701 1.68-1.756.115-.116.115-.523 0-.639l-.18.004-.156.003-.313.006c-.609.013-1.12.024-1.858.024-.821 0-1.348-.012-2.077-.028h-.002L77.22.983c-.116.116-.116.523 0 .639 1.351.055 1.68.154 1.68 1.756v7.742c0 1.604-.329 1.7-1.68 1.758Zm15.288 0c.115.116.115.521 0 .637-.202-.004-.383-.01-.554-.014a54.92 54.92 0 0 0-1.588-.024c-.621 0-1.057.01-1.564.024l-.285.007-.173.004-.14.003c-.116-.116-.116-.521 0-.637 1.178-.096 1.393-.154 1.393-1.758V7.355c0-1.099-.205-1.213-1.258-1.314-.035-.116-.077-.423-.035-.539 1.33-.174 2.094-.346 2.642-.56.154 0 .252.058.252.134 0 0-.079 1.235-.079 2.196v3.848c0 1.605.213 1.68 1.389 1.758ZM90.365.985c.522 0 .927.542.927 1.003 0 .409-.465.929-1.004.929-.465 0-.928-.502-.928-1.004 0-.464.543-.928 1.005-.928Zm11.873 7.823c0-2.356-1.737-3.806-3.417-3.806-.827 0-1.562.326-2.164.87-.121.111-.191.079-.191-.095V2.223c0-1.253.077-2.027.077-2.027 0-.137-.077-.195-.251-.195-.483.195-1.929.467-2.703.525-.038.156 0 .463.116.579l.09.005.092.004c.85.043 1.054.053 1.054 1.574v9.42c0 .755-.021 1.101-.079 1.373.095.153.195.23.426.23l.034-.033c.118-.113.287-.275.424-.43.196-.232.311-.232.525-.055.441.373 1.019.478 1.7.478 1.97 0 4.267-1.795 4.267-4.863Zm-5.772 3.3V7.28c0-.407.079-.592.33-.815a2.42 2.42 0 0 1 1.64-.618c1.178 0 2.142 1.429 2.142 3.303 0 2.202-.89 3.862-2.722 3.862-.602 0-1.004-.424-1.39-.906Zm11.95.77c.116.116.116.521 0 .637l-.557-.014c-.532-.013-.959-.024-1.586-.024-.622 0-1.058.01-1.564.024-.186.005-.381.01-.598.014-.116-.116-.116-.521 0-.637 1.177-.096 1.391-.154 1.391-1.758V7.355c0-1.099-.203-1.213-1.256-1.314-.037-.116-.077-.423-.037-.539 1.33-.174 2.094-.346 2.645-.56.154 0 .249.058.249.134 0 0-.077 1.235-.077 2.196v3.848c0 1.605.212 1.68 1.39 1.758ZM106.273.985c.523 0 .927.542.927 1.003 0 .409-.464.929-1.006.929-.465 0-.925-.502-.925-1.004 0-.464.541-.928 1.004-.928Zm3.679.128c.849.043 1.052.053 1.052 1.572v8.436c0 1.606-.211 1.68-1.293 1.76-.116.114-.116.521 0 .637.255-.005.474-.01.679-.016a48.69 48.69 0 0 1 1.388-.02c.469 0 .733.007 1.129.019l.628.017c.115-.116.115-.523 0-.637-.789-.08-1.004-.156-1.004-1.76V9.384c.457.009.723.151 1.1.696l1.408 1.99c.388.56.446.789.446 1.041v.308c0 .058.019.096.077.096l.128-.006c.34-.016.686-.032 1.202-.032.483 0 .841.012 1.266.027l.316.011c.116-.116.116-.521 0-.637-.654-.079-1.219-.16-1.66-.812l-2.259-3.339a.474.474 0 0 1-.097-.273.25.25 0 0 1 .079-.193l1.466-1.621c.576-.593 1.161-.811 2.125-.85.116-.114.116-.521 0-.637-.253.006-.45.012-.629.018-.329.01-.6.02-1.051.02-.581 0-.907-.011-1.372-.026l-.402-.012c-.116.116-.116.523 0 .637 1.165.058.548.781.344.985-1.016 1.109-1.975 1.964-2.49 2.114V2.22c0-1.254.077-2.027.077-2.027 0-.134-.077-.192-.249-.192-.485.192-1.929.465-2.703.523-.039.154 0 .465.116.58l.183.01Z" clip-rule="evenodd"/></svg>
